icons/diamond.svg

<svg width="24" height="24" viewBox="0 0 24 24" fill="none" xmlns="http://www.w3.org/2000/svg">
<path fill-rule="evenodd" clip-rule="evenodd" d="M4.84508 3.38855C5.03445 3.14349 5.32667 3 5.63637 3H18.3636C18.6733 3 18.9656 3.14349 19.1549 3.38855L22.7913 8.09444C23.0849 8.47436 23.067 9.00931 22.7487 9.36879L12.7487 20.6629C12.5589 20.8773 12.2863 21 12 21C11.7137 21 11.4411 20.8773 11.2513 20.6629L1.2513 9.36879C0.933015 9.00931 0.915138 8.47436 1.20872 8.09444L4.84508 3.38855ZM6.12741 5L3.29727 8.66253L12 18.4915L20.7027 8.66253L17.8726 5H6.12741Z" fill="black"/>
</svg>

<svg
  width="24"
  height="24"
  viewBox="0 0 24 24"
  xmlns="http://www.w3.org/2000/svg"
>
  <path
    fill-rule="evenodd"
    clip-rule="evenodd"
    d="M4.845 3.389A1 1 0 0 1 5.636 3h12.728a1 1 0 0 1 .79.389l3.637 4.705a1 1 0 0 1-.042 1.275l-10 11.294a1 1 0 0 1-1.498 0l-10-11.294a1 1 0 0 1-.042-1.275L4.845 3.39zM6.127 5l-2.83 3.663L12 18.49l8.703-9.828L17.873 5H6.127z"
  />
</svg>
